packages/design-assets/icons/12px/Drag Handle.svg

<svg width="12" height="12" xmlns="http://www.w3.org/2000/svg"><path d="M3 2h2v2H3V2zm4 0h2v2H7V2zM3 5h2v2H3V5zm4 0h2v2H7V5zM3 8h2v2H3V8zm4 0h2v2H7V8z" fill="#818F99" fill-rule="evenodd"/></svg>

<?xml version="1.0" encoding="UTF-8"?>
<svg width="12px" height="12px" viewBox="0 0 12 12" version="1.1" xmlns="http://www.w3.org/2000/svg" xmlns:xlink="http://www.w3.org/1999/xlink">
    <!-- Generator: Sketch 54.1 (76490) - https://sketchapp.com -->
    <title>Icons/12px/Drag Handle</title>
    <desc>Created with Sketch.</desc>
    <g id="Icons/12px/Drag-Handle" stroke="none" stroke-width="1" fill="none" fill-rule="evenodd">
        <path d="M3,2 L5,2 L5,4 L3,4 L3,2 Z M7,2 L9,2 L9,4 L7,4 L7,2 Z M3,5 L5,5 L5,7 L3,7 L3,5 Z M7,5 L9,5 L9,7 L7,7 L7,5 Z M3,8 L5,8 L5,10 L3,10 L3,8 Z M7,8 L9,8 L9,10 L7,10 L7,8 Z" id="i-12-drag-handle" fill="#818F99"></path>
    </g>
</svg>
